X: 5506
T: Buntata 's Sgadan
R: reel
M: 4/4
K: Amajor
AAcA ceae|f2 ae cBBa|AAcA ccae|f2 ae cAAa|
AAcA ceae|f2 ae cBBa|AAcA ccae|f2 ae cAAe|
f2 cf efce|f2 ae cBBe|f2 cf efce|f2 ae cAAe|
f2 cf efce|f2 ae cBBa|AAcA ceae|f2 ae cAAa||

